X: 9186
T: Daly's
R: reel
M: 4/4
K: Cmajor
|:GA|c2 Gc e2 ce|(ge)ae (ge)dc|B2 GA (Bc)de|feag fedB|
c2 Gc e2 ce|(ge)ae (ge)dc|BGBa gdBd|[c3e3] [ce] [c2e2]:|
|:(fg)|a2 [a2c2] [a2c2] [a2c2]|fga^g aba=g|ecga g2 (ef)|g^fga g=feg|
(f3 g) fede|fefg fedc|BGBa gdBd|[e3c3] [ec] [e2c2]:|

